X: 36505
T: Sergeant Early's
R: jig
M: 6/8
K: Dmajor
|:A|FED EFG|AGE c2e|dcA e<fd|ecA A2G|
GED EFG|AGE c2e|dcA GEA|DED D2:|
|:d|cBA Bcd|efe e2d|dcd e<fd|ecA A2d|
cBA Bcd|eag e2d|dcA GEA|DED D2:|

